apps/128/system-software-update.svg

<?xml version="1.0" encoding="UTF-8" standalone="no"?>
<svg
   xmlns:dc="http://purl.org/dc/elements/1.1/"
   xmlns:cc="http://creativecommons.org/ns#"
   xmlns:rdf="http://www.w3.org/1999/02/22-rdf-syntax-ns#"
   xmlns:svg="http://www.w3.org/2000/svg"
   xmlns="http://www.w3.org/2000/svg"
   xmlns:xlink="http://www.w3.org/1999/xlink"
   version="1.1"
   width="128"
   height="128"
   id="svg3956">
  <defs
     id="defs3958">
    <linearGradient
       x1="167.98311"
       y1="8.50811"
       x2="167.98311"
       y2="54.780239"
       id="linearGradient3045-0"
       xlink:href="#linearGradient5803-2"
       gradientUnits="userSpaceOnUse"
       gradientTransform="matrix(1.7777778,0,0,1.7777778,-228.47946,-53.887076)" />
    <linearGradient
       id="linearGradient5803-2">
      <stop
         id="stop5805-1"
         style="stop-color:#fff5ef;stop-opacity:1"
         offset="0" />
      <stop
         id="stop5807-6"
         style="stop-color:#fef8dd;stop-opacity:1"
         offset="1" />
    </linearGradient>
    <linearGradient
       x1="23.99999"
       y1="4.999989"
       x2="23.99999"
       y2="43"
       id="linearGradient4136"
       xlink:href="#linearGradient3924"
       gradientUnits="userSpaceOnUse"
       gradientTransform="matrix(2.7297298,0,0,2.7297298,-1.5135184,-62.511679)" />
    <linearGradient
       id="linearGradient3924">
      <stop
         id="stop3926"
         style="stop-color:#ffffff;stop-opacity:1"
         offset="0" />
      <stop
         id="stop3928"
         style="stop-color:#ffffff;stop-opacity:0.23529412"
         offset="0.06316455" />
      <stop
         id="stop3930"
         style="stop-color:#ffffff;stop-opacity:0.15686275"
         offset="0.95056331" />
      <stop
         id="stop3932"
         style="stop-color:#ffffff;stop-opacity:0.39215687"
         offset="1" />
    </linearGradient>
    <radialGradient
       cx="6.7304144"
       cy="9.9571075"
       r="12.671875"
       fx="6.2001843"
       fy="9.9571075"
       id="radialGradient5264-4"
       xlink:href="#linearGradient2867-449-88-871-390-598-476-591-434-148-57-177-8-3-3-6-4-8-8-8"
       gradientUnits="userSpaceOnUse"
       gradientTransform="matrix(0,25.083279,-30.794253,0,372.81656,-272.08999)" />
    <linearGradient
       id="linearGradient2867-449-88-871-390-598-476-591-434-148-57-177-8-3-3-6-4-8-8-8">
      <stop
         id="stop3750-1-0-7-6-6-1-3-9"
         style="stop-color:#ffcd7d;stop-opacity:1"
         offset="0" />
      <stop
         id="stop3752-3-7-4-0-32-8-923-0"
         style="stop-color:#fc8f36;stop-opacity:1"
         offset="0.26238" />
      <stop
         id="stop3754-1-8-5-2-7-6-7-1"
         style="stop-color:#e23a0e;stop-opacity:1"
         offset="0.704952" />
      <stop
         id="stop3756-1-6-2-6-6-1-96-6"
         style="stop-color:#ac441f;stop-opacity:1"
         offset="1" />
    </linearGradient>
    <radialGradient
       cx="4.9929786"
       cy="43.5"
       r="2.5"
       fx="4.9929786"
       fy="43.5"
       id="radialGradient4093"
       xlink:href="#linearGradient3688-166-749-5"
       gradientUnits="userSpaceOnUse"
       gradientTransform="matrix(2.003784,0,0,1.4,27.98813,-17.4)" />
    <linearGradient
       id="linearGradient3688-166-749-5">
      <stop
         id="stop2883-0"
         style="stop-color:#181818;stop-opacity:1"
         offset="0" />
      <stop
         id="stop2885-5"
         style="stop-color:#181818;stop-opacity:0"
         offset="1" />
    </linearGradient>
    <radialGradient
       cx="4.9929786"
       cy="43.5"
       r="2.5"
       fx="4.9929786"
       fy="43.5"
       id="radialGradient4095"
       xlink:href="#linearGradient3688-464-309-8"
       gradientUnits="userSpaceOnUse"
       gradientTransform="matrix(2.003784,0,0,1.4,-20.01187,-104.4)" />
    <linearGradient
       id="linearGradient3688-464-309-8">
      <stop
         id="stop2889-9"
         style="stop-color:#181818;stop-opacity:1"
         offset="0" />
      <stop
         id="stop2891-4"
         style="stop-color:#181818;stop-opacity:0"
         offset="1" />
    </linearGradient>
    <linearGradient
       x1="25.058096"
       y1="47.027729"
       x2="25.058096"
       y2="39.999443"
       id="linearGradient4097"
       xlink:href="#linearGradient3702-501-757-0"
       gradientUnits="userSpaceOnUse" />
    <linearGradient
       id="linearGradient3702-501-757-0">
      <stop
         id="stop2895-0"
         style="stop-color:#181818;stop-opacity:0"
         offset="0" />
      <stop
         id="stop2897-2"
         style="stop-color:#181818;stop-opacity:1"
         offset="0.5" />
      <stop
         id="stop2899-6"
         style="stop-color:#181818;stop-opacity:0"
         offset="1" />
    </linearGradient>
    <linearGradient
       id="linearGradient3811">
      <stop
         id="stop3813"
         style="stop-color:#000000;stop-opacity:1"
         offset="0" />
      <stop
         id="stop3815"
         style="stop-color:#000000;stop-opacity:0"
         offset="1" />
    </linearGradient>
    <radialGradient
       cx="-4.0287771"
       cy="93.467628"
       r="35.338131"
       fx="-4.0287771"
       fy="93.467628"
       id="radialGradient3954"
       xlink:href="#linearGradient3811"
       gradientUnits="userSpaceOnUse"
       gradientTransform="matrix(1.5563924,0,0,0.16978827,70.270355,38.132101)" />
  </defs>
  <metadata
     id="metadata3961">
    <rdf:RDF>
      <cc:Work
         rdf:about="">
        <dc:format>image/svg+xml</dc:format>
        <dc:type
           rdf:resource="http://purl.org/dc/dcmitype/StillImage" />
        <dc:title />
      </cc:Work>
    </rdf:RDF>
  </metadata>
  <g
     transform="translate(0,64)"
     id="layer1">
    <path
       d="m 119,54.00181 a 55,6 0 0 1 -109.9999982,0 55,6 0 1 1 109.9999982,0 z"
       id="path3041"
       style="opacity:0.2;color:#000000;fill:url(#radialGradient3954);fill-opacity:1;fill-rule:nonzero;stroke:none;stroke-width:1;marker:none;visibility:visible;display:inline;overflow:visible;enable-background:accumulate" />
    <g
       transform="matrix(2.6999989,0,0,0.55555607,-0.80000812,30.890691)"
       id="g2036"
       style="display:inline">
      <g
         transform="matrix(1.052632,0,0,1.285713,-1.263158,-13.42854)"
         id="g3712"
         style="opacity:0.4">
        <rect
           width="5"
           height="7"
           x="38"
           y="40"
           id="rect2801"
           style="fill:url(#radialGradient4093);fill-opacity:1;stroke:none" />
        <rect
           width="5"
           height="7"
           x="-10"
           y="-47"
           transform="scale(-1,-1)"
           id="rect3696"
           style="fill:url(#radialGradient4095);fill-opacity:1;stroke:none" />
        <rect
           width="28"
           height="7.0000005"
           x="10"
           y="40"
           id="rect3700"
           style="fill:url(#linearGradient4097);fill-opacity:1;stroke:none" />
      </g>
    </g>
    <rect
       width="103"
       height="103"
       rx="6.0545406"
       ry="6.0545406"
       x="12.499988"
       y="-48.498192"
       id="rect5505-21-3"
       style="color:#000000;fill:url(#radialGradient5264-4);fill-opacity:1;fill-rule:nonzero;stroke:none;stroke-width:0.99999994;marker:none;visibility:visible;display:inline;overflow:visible;enable-background:accumulate" />
    <rect
       width="101"
       height="101"
       rx="5"
       ry="5"
       x="13.499988"
       y="-47.498192"
       id="rect6741-7"
       style="opacity:0.5;fill:none;stroke:url(#linearGradient4136);stroke-width:0.99999994;stroke-linecap:round;stroke-linejoin:round;stroke-miterlimit:4;stroke-opacity:1;stroke-dasharray:none;stroke-dashoffset:0" />
    <rect
       width="103"
       height="103"
       rx="6.0545406"
       ry="6.0545406"
       x="12.499988"
       y="-48.498192"
       id="rect5505-21-3-1"
       style="opacity:0.4;color:#000000;fill:none;stroke:#640000;stroke-width:1;stroke-linecap:round;stroke-linejoin:round;stroke-miterlimit:4;stroke-opacity:1;stroke-dasharray:none;stroke-dashoffset:0;marker:none;visibility:visible;display:inline;overflow:visible;enable-background:accumulate" />
    <path
       d="m 64,-29 c -15.01735,0 -27.677659,9.965955 -31.65625,23.71875 A 0.98724289,0.98724289 0 0 0 33.28125,-4 l 7.5,0 A 0.98724289,0.98724289 0 0 0 41.6875,-4.65625 C 45.131861,-13.62427 53.811626,-20 64,-20 c 6.235096,0 11.866465,2.551158 16.125,6.5 l -7.9375,7.8125 A 0.98724289,0.98724289 0 0 0 72.875,-4 L 96,-4 a 0.98724289,0.98724289 0 0 0 1,-1 l 0,-23 a 0.98724289,0.98724289 0 0 0 -1.6875,-0.6875 l -8.75,8.78125 C 80.662963,-25.477109 72.750998,-29 64,-29 z M 32,12 a 0.98724289,0.98724289 0 0 0 -1,1 l 0,23 a 0.98724289,0.98724289 0 0 0 1.6875,0.6875 l 8.75,-8.75 C 47.338225,33.507157 55.25124,37 64,37 79.017349,37 91.677658,27.034043 95.65625,13.28125 A 0.98724289,0.98724289 0 0 0 94.71875,12 l -7.5,0 A 0.98724289,0.98724289 0 0 0 86.3125,12.65625 C 82.868138,21.624268 74.188372,28 64,28 57.764903,28 52.133535,25.448842 47.875,21.5 l 7.9375,-7.8125 A 0.98724289,0.98724289 0 0 0 55.125,12 L 32,12 z"
       transform="translate(-6.25e-7,2e-6)"
       id="path3129"
       style="opacity:0.15;color:#000000;fill:#ae2109;fill-opacity:1;fill-rule:nonzero;stroke:none;stroke-width:1;marker:none;visibility:visible;display:inline;overflow:visible;enable-background:accumulate" />
    <path
       d="m 63.999989,-27.997996 c -14.581276,0 -26.863625,9.660177 -30.722223,22.998191 l 7.500001,0 c 3.586852,-9.339021 12.620376,-16 23.222222,-16 6.866013,0 13.058559,2.940656 17.555555,7.446253 l -8.666666,8.553747 23.111111,0 0,-22.998191 -9.38889,9.388889 c -5.784193,-5.792657 -13.778155,-9.388889 -22.61111,-9.388889 z m -32,40.998191 0,23.001807 9.38889,-9.38889 c 5.784193,5.792658 13.778155,9.38889 22.61111,9.38889 14.581275,0 26.863624,-9.663795 30.722222,-23.001807 l -7.5,0 c -3.586853,9.339019 -12.620378,16 -23.222222,16 -6.866014,0 -13.05856,-2.93704 -17.555556,-7.442637 l 8.666666,-8.557363 z"
       id="path3178-9"
       style="opacity:0.3;color:#000000;fill:#ae2109;fill-opacity:1;fill-rule:nonzero;stroke:none;stroke-width:1;marker:none;visibility:visible;display:inline;overflow:visible;enable-background:accumulate" />
    <path
       d="m 63.999989,-28.998189 c -14.581276,0 -26.863625,9.660177 -30.722223,22.998191 l 7.500001,0 c 3.586852,-9.339021 12.620376,-16 23.222222,-16 6.866013,0 13.058559,2.940656 17.555555,7.446253 l -8.666666,8.553747 23.111111,0 0,-22.998191 -9.38889,9.388889 c -5.784193,-5.792657 -13.778155,-9.388889 -22.61111,-9.388889 z m -32,40.998191 0,23.001807 9.38889,-9.38889 c 5.784193,5.792658 13.778155,9.38889 22.61111,9.38889 14.581275,0 26.863624,-9.663795 30.722222,-23.001807 l -7.5,0 c -3.586853,9.339019 -12.620378,16 -23.222222,16 -6.866014,0 -13.05856,-2.93704 -17.555556,-7.442637 l 8.666666,-8.557363 z"
       id="path3178"
       style="color:#000000;fill:url(#linearGradient3045-0);fill-opacity:1;fill-rule:nonzero;stroke:none;stroke-width:1.00000012px;marker:none;visibility:visible;display:inline;overflow:visible;enable-background:accumulate" />
  </g>
</svg>

<svg xmlns="http://www.w3.org/2000/svg" xmlns:xlink="http://www.w3.org/1999/xlink" viewBox="0 0 128 128"><defs><linearGradient x1="167.983" y1="8.508" x2="167.983" y2="54.78" id="n" xlink:href="#a" gradientUnits="userSpaceOnUse" gradientTransform="translate(-228.48 -53.887) scale(1.77778)"/><linearGradient id="a"><stop offset="0" stop-color="#fff5ef"/><stop offset="1" stop-color="#fef8dd"/></linearGradient><linearGradient x1="24" y1="5" x2="24" y2="43" id="m" xlink:href="#b" gradientUnits="userSpaceOnUse" gradientTransform="translate(-1.514 -62.512) scale(2.72973)"/><linearGradient id="b"><stop offset="0" stop-color="#fff"/><stop offset=".063" stop-color="#fff" stop-opacity=".235"/><stop offset=".951" stop-color="#fff" stop-opacity=".157"/><stop offset="1" stop-color="#fff" stop-opacity=".392"/></linearGradient><radialGradient cx="6.73" cy="9.957" r="12.672" fx="6.2" fy="9.957" id="l" xlink:href="#c" gradientUnits="userSpaceOnUse" gradientTransform="matrix(0 25.08328 -30.79425 0 372.826 -272.078)"/><linearGradient id="c"><stop offset="0" stop-color="#ffcd7d"/><stop offset=".262" stop-color="#fc8f36"/><stop offset=".705" stop-color="#e23a0e"/><stop offset="1" stop-color="#ac441f"/></linearGradient><radialGradient cx="4.993" cy="43.5" r="2.5" fx="4.993" fy="43.5" id="i" xlink:href="#d" gradientUnits="userSpaceOnUse" gradientTransform="matrix(2.00378 0 0 1.4 27.988 -17.4)"/><linearGradient id="d"><stop offset="0" stop-color="#181818"/><stop offset="1" stop-color="#181818" stop-opacity="0"/></linearGradient><radialGradient cx="4.993" cy="43.5" r="2.5" fx="4.993" fy="43.5" id="j" xlink:href="#e" gradientUnits="userSpaceOnUse" gradientTransform="matrix(2.00378 0 0 1.4 -20.012 -104.4)"/><linearGradient id="e"><stop offset="0" stop-color="#181818"/><stop offset="1" stop-color="#181818" stop-opacity="0"/></linearGradient><linearGradient x1="25.058" y1="47.028" x2="25.058" y2="39.999" id="k" xlink:href="#f" gradientUnits="userSpaceOnUse"/><linearGradient id="f"><stop offset="0" stop-color="#181818" stop-opacity="0"/><stop offset=".5" stop-color="#181818"/><stop offset="1" stop-color="#181818" stop-opacity="0"/></linearGradient><linearGradient id="g"><stop offset="0"/><stop offset="1" stop-opacity="0"/></linearGradient><radialGradient cx="-4.029" cy="93.468" r="35.338" fx="-4.029" fy="93.468" id="h" xlink:href="#g" gradientUnits="userSpaceOnUse" gradientTransform="matrix(1.5564 0 0 .1698 70.27 38.132)"/></defs><g transform="translate(0 64)"><path d="M119 54.002a55 6 0 0 1-110 0 55 6 0 1 1 110 0z" opacity=".2" color="#000" fill="url(#h)" overflow="visible"/><g opacity=".4"><path fill="url(#i)" d="M38 40h5v7h-5z" transform="matrix(2.842 0 0 .7143 -4.21 23.43)"/><path transform="matrix(-2.842 0 0 -.7143 -4.21 23.43)" fill="url(#j)" d="M-10-47h5v7h-5z"/><path fill="url(#k)" d="M10 40h28v7H10z" transform="matrix(2.842 0 0 .7143 -4.21 23.43)"/></g><rect width="103" height="103" rx="6.055" ry="6.055" x="12.5" y="-48.498" color="#000" fill="url(#l)" overflow="visible"/><rect width="101" height="101" rx="5" ry="5" x="13.5" y="-47.498" opacity=".5" fill="none" stroke="url(#m)" stroke-linecap="round" stroke-linejoin="round"/><rect width="103" height="103" rx="6.055" ry="6.055" x="12.5" y="-48.498" opacity=".4" color="#000" fill="none" stroke="#640000" stroke-linecap="round" stroke-linejoin="round" overflow="visible"/><path d="M64-29A32.894 32.894 0 0 0 32.344-5.28.987.987 0 0 0 33.28-4h7.5a.987.987 0 0 0 .907-.656C45.132-13.624 53.812-20 64-20c6.235 0 11.866 2.55 16.125 6.5l-7.938 7.813A.987.987 0 0 0 72.875-4H96a.987.987 0 0 0 1-1v-23a.987.987 0 0 0-1.688-.687l-8.75 8.78C80.662-25.477 72.752-29 64-29zM32 12a.987.987 0 0 0-1 1v23a.987.987 0 0 0 1.687.688l8.75-8.75C47.337 33.508 55.25 37 64 37a32.894 32.894 0 0 0 31.656-23.72.987.987 0 0 0-.937-1.28h-7.5a.987.987 0 0 0-.91.656C82.87 21.624 74.19 28 64 28c-6.235 0-11.866-2.55-16.125-6.5l7.937-7.812A.987.987 0 0 0 55.125 12H32z" opacity=".15" color="#000" fill="#ae2109" overflow="visible"/><path d="M64-27.998c-14.58 0-26.864 9.66-30.722 22.998h7.5C44.365-14.34 53.398-21 64-21c6.866 0 13.06 2.94 17.556 7.446L72.89-5H96v-22.998l-9.39 9.39C80.828-24.403 72.834-28 64-28zM32 13v23.002l9.39-9.39c5.783 5.794 13.777 9.39 22.61 9.39 14.58 0 26.864-9.664 30.722-23.002h-7.5C83.635 22.34 74.602 29 64 29c-6.866 0-13.06-2.937-17.556-7.442L55.11 13z" opacity=".3" color="#000" fill="#ae2109" overflow="visible"/><path d="M64-28.998c-14.58 0-26.864 9.66-30.722 22.998h7.5C44.365-15.34 53.398-22 64-22c6.866 0 13.06 2.94 17.556 7.446L72.89-6H96v-22.998l-9.39 9.39C80.828-25.403 72.834-29 64-29zM32 12v23.002l9.39-9.39c5.783 5.794 13.777 9.39 22.61 9.39 14.58 0 26.864-9.664 30.722-23.002h-7.5C83.635 21.34 74.602 28 64 28c-6.866 0-13.06-2.937-17.556-7.443L55.11 12z" color="#000" fill="url(#n)" overflow="visible"/></g></svg>
